neru-light-classic/22x22/emblems/emblem-synchronizing-symbolic.svg

<svg xmlns="http://www.w3.org/2000/svg" width="16" height="16"><path d="M8 2a6 6 0 0 0-4.059 1.59L5.148 5.2A4 4 0 0 1 8 4a4 4 0 0 1 4 4h-2l3 4 3-4h-2a6 6 0 0 0-6-6zM3 4L0 8h2a6 6 0 0 0 6 6 6 6 0 0 0 4.059-1.59l-1.209-1.609A4 4 0 0 1 8 12a4 4 0 0 1-4-4h2z" fill="#1e333d"/></svg>

<svg xmlns="http://www.w3.org/2000/svg" width="16" height="16" version="1.1">
 <path style="fill:#1e333d" d="M 8,2 A 6,6 0 0 0 3.9414,3.5898 L 5.1484,5.1992 A 4,4 0 0 1 8,4 4,4 0 0 1 12,8 H 10 L 13,12 16,8 H 14 A 6,6 0 0 0 8,2 Z M 3,4 0,8 H 2 A 6,6 0 0 0 8,14 6,6 0 0 0 12.059,12.41 L 10.85,10.801 A 4,4 0 0 1 8,12 4,4 0 0 1 4,8 H 6 Z"/>
</svg>
